lib/svg/clippy.svg

<svg xmlns="http://www.w3.org/2000/svg" width="14" height="16" viewBox="0 0 14 16"><path d="M2 13h4v1H2v-1zm5-6H2v1h5V7zm2 3V8l-3 3 3 3v-2h5v-2H9zM4.5 9H2v1h2.5V9zM2 12h2.5v-1H2v1zm9 1h1v2c-.02.28-.11.52-.3.7-.19.18-.42.28-.7.3H1c-.55 0-1-.45-1-1V4c0-.55.45-1 1-1h3c0-1.11.89-2 2-2 1.11 0 2 .89 2 2h3c.55 0 1 .45 1 1v5h-1V6H1v9h10v-2zM2 5h8c0-.55-.45-1-1-1H8c-.55 0-1-.45-1-1s-.45-1-1-1-1 .45-1 1-.45 1-1 1H3c-.55 0-1 .45-1 1z"/></svg>

<?xml version="1.0" encoding="UTF-8" standalone="no"?>
<svg width="14px" height="16px" viewBox="0 0 14 16" version="1.1" xmlns="http://www.w3.org/2000/svg" xmlns:xlink="http://www.w3.org/1999/xlink">
    <!-- Generator: Sketch 3.8.3 (29802) - http://www.bohemiancoding.com/sketch -->
    <title>clippy</title>
    <desc>Created with Sketch.</desc>
    <defs></defs>
    <g id="Octicons" stroke="none" stroke-width="1" fill="none" fill-rule="evenodd">
        <g id="clippy" fill="#000000">
            <path d="M2,13 L6,13 L6,14 L2,14 L2,13 L2,13 Z M7,7 L2,7 L2,8 L7,8 L7,7 L7,7 Z M9,10 L9,8 L6,11 L9,14 L9,12 L14,12 L14,10 L9,10 L9,10 Z M4.5,9 L2,9 L2,10 L4.5,10 L4.5,9 L4.5,9 Z M2,12 L4.5,12 L4.5,11 L2,11 L2,12 L2,12 Z M11,13 L12,13 L12,15 C11.98,15.28 11.89,15.52 11.7,15.7 C11.51,15.88 11.28,15.98 11,16 L1,16 C0.45,16 0,15.55 0,15 L0,4 C0,3.45 0.45,3 1,3 L4,3 C4,1.89 4.89,1 6,1 C7.11,1 8,1.89 8,3 L11,3 C11.55,3 12,3.45 12,4 L12,9 L11,9 L11,6 L1,6 L1,15 L11,15 L11,13 L11,13 Z M2,5 L10,5 C10,4.45 9.55,4 9,4 L8,4 C7.45,4 7,3.55 7,3 C7,2.45 6.55,2 6,2 C5.45,2 5,2.45 5,3 C5,3.55 4.55,4 4,4 L3,4 C2.45,4 2,4.45 2,5 L2,5 Z" id="Shape"></path>
        </g>
    </g>
</svg>
